!!!!SEGMENT: pl-wumfc--n68471_kazynski-wiktor--reverie.krn
!!!cenid: 18xx:4127
!!!COM: Każyński, Wiktor
!!!COM-rismID: pe30020613
!!!CDT: 1812/12/18-1867/03/18
!!!CNT: Polish
!!!OTL: Rêverie
!!!PDT:
!!!AGN:
!!!SMS-siglum: PL-Wumfc
!!!SMS-shelfmark: N68471
!!!SMS-variant:
!!!SMS-altvar:
!!!SMS-shelfwork: W
!!!NIFC-rismSourceID: 1001177659
!!!NIFC-rismChildID: 1001177659
!!!NIFC-islandoraID: pl-wumfc:8423
!!!URL-pdf-islandora: https://repozytorium.nifc.pl/islandora/object/pl-wumfc%3A8423/datastream/PDF/view
!!!URL-scan: https://polish.musicsources.pl/pl/lokalizacje/galeria/druki-muzyczne/12636/1 @EN{Scan on Polish Music Sources Website} @PL{Skany w portalu Dziedzictwo Muzyki Polskiej w otwartym dostępie}
!!!IIIF:
!!!ONB-nifc:
!!!OMD: Andante\namoroso.
!!!OMD-mod: Andante amoroso
!!!AIN: 2 piano
!!!key: A
**kern	**kern	**fing	**dynam
*part2	*part1	*	*part1
*staff2	*staff1	*	*
*I"[Piano]	*I"[Piano]	*	*
*I'	*I'	*	*
*Ipiano	*Ipiano	*	*
*ICklav	*ICklav	*	*
*IGsolo	*IGsolo	*	*
*clefF4	*clefG2	*	*
*k[f#c#g#]	*k[f#c#g#]	*	*
*A:	*A:	*	*
*M4/4	*M4/4	*	*
*met(c)	*met(c)	*	*
!	!LO:TX:a:t=„Ma belle nuit, oh ! sois plus lente,\n„Car tu me fais aimer et vivre;\n„Vogue sans bruit, lune éclatante,\n„Tandis que mon coeur d’amour s’enivre!...	!	!
!	!LO:TX:b:i:t=dolce assai e cantabile.	!	!
4r	(8.e\L	.	p
.	16ee\Jk)	.	.
=1	=1	=1	=1
!LO:TX:b:i:t=il basso sempre legato possibile.	!	!	!
(8AA\L	(4ee\	.	.
8E\	.	.	.
8A\	8.dd\L	.	.
8c#\J	.	.	.
.	16cc#\Jk)	.	.
8e\L	4cc#\	.	.
8c#\	.	.	.
.	(32qqdd/LL	.	.
.	32qqcc#/JJ	.	.
8A\	8.b\L)	.	.
8E\J)	.	.	.
.	16a\Jk	.	.
=2	=2	=2	=2
.	(8qa/	.	.
8FF#/	(2aa\)	.	.
*clefG2	*	*	*
(8A/L	.	.	.
8c#/	.	.	.
8f#/J	.	.	.
8a/L	4cc#\)	.	.
8f#/	.	.	.
8c#/	8r	.	.
8A/J)	(8cc#\	.	.
*clefF4	*	*	*
=3	=3	=3	=3
*^	*	*	*
!	!	!LO:TX:b:i:t=espress.	!	!
2BB/	(>8BB\L	4ee\)	.	.
.	8F#\	.	.	.
.	8B\	(8.dd\L	.	.
.	8d\J)	.	.	.
.	.	16cc#\Jk	.	.
2D/	(>8D\L	4cc#\	.	<
.	8A\	.	.	.
.	8B\	8.b\L	.	.
.	8fn\J)	.	.	.
.	.	16a\Jk)	.	[[
!!LO:LB:g=original
=4	=4	=4	=4	=4
8ryy	8EE/	(2.b\	.	<
4E/	(>8E\L	.	.	.
.	8G#\	.	.	.
8ryy	8d\J	.	.	.
2ryy	8e\L	.	.	.
.	8d\	.	.	.
.	8G#\	4b#X\)	.	[[
.	8E\J)	.	.	.
=5	=5	=5	=5	=5
8AA/	8AA\L	4cc#\	.	<
4E/	8E\	.	.	.
.	.	(<8qee/	.	.
.	8A\	(8.dd\L)	.	.
8ryy	8c#\J	.	.	.
.	.	16cc#\Jk)	.	.
8GG#/	8GG#\L	4cc#\	.	.
4E#/	8E#X\	.	.	.
.	.	(<8qee/	.	.
.	8B\	(8.dd\L)	.	.
8ryy	8c#\J	.	.	.
.	.	16cc#\Jk)	.	.
*v	*v	*	*	*
=6	=6	=6	=6
*ped	*	*	*
!	!LO:TX:b:i:t=con passione.	!	!
8FF#/	(4cc#\	.	<
(8F#\L	.	.	.
8A\	2aa\)	.	[[
8c#\J)	.	.	.
8FF#/	.	.	.
(8F#\L	.	.	.
.	8qaa/	.	>
8A\	(8.gg#\L	.	.
*Xped	*	*	*
8d#X\J)	.	.	.
.	16ff##X\Jk)	.	]]
=7	=7	=7	=7
*ped	*	*	*
8GG#/	([8gg#\L	.	.
(8G#\L	32gg#\LL]	.	.
.	32dd#X\	.	.
.	32ee\	.	.
.	32cc#\JJJ)	.	.
!	!LO:TX:b:i:t=poco rallen.	!	!
8c#\	2g#/	.	.
*Xped	*	*	*
8e\J)	.	.	.
*ped	*	*	*
8GG#/	.	.	.
(8G#\L	.	.	.
.	(32qqa/LLL	.	.
.	32qqg#/	.	.
.	32qqf##X/	.	.
.	32qqg#/JJJ)	.	.
.	(>8qg#/	.	.
8B#X\	(8.ee\L)	.	.
*Xped	*	*	*
8f#\J)	.	.	.
.	16dd#\Jk)	.	.
!!LO:LB:g=original
=8	=8	=8	=8
4e: 4G#: 4C#:\	(2cc#\	.	<
4r	.	.	.
2r	4ddn\	.	.
.	4dd#X\)	.	[[
=9	=9	=9	=9
*^	*	*	*
!	!	!LO:TX:b:i:t=espress.	!	!
8AA/	8AA\L	4ee\	.	.
8ryy	(8E\	.	.	.
8ryy	8A\	(8.ddn\L	.	.
8ryy	8c#\J)	.	.	.
.	.	16cc#\Jk)	.	.
4AA/	8AA\L	4cc#\	.	.
.	(>8E#X\	.	.	.
.	.	(<32qqdd/LL	.	.
.	.	32qqcc#/JJ	.	.
8ryy	8A\	(8.b\L)	.	.
8ryy	8c#\J)	.	.	.
.	.	16a\Jk)	.	.
*v	*v	*	*	*
=10	=10	=10	=10
.	(>8qa/	.	.
*ped	*	*	*
!	!LO:TUP:a:problem:klamra łukowa	!	!
8FF#/	48aa\KLL)	.	pp
!	!LO:TX:b:i:t=delicatissimo.	!	!
.	48r	.	.
.	24gg#\	.	.
.	24ggn\	.	.
(8F#\L	24ff#\	.	.
.	24ffn\	.	.
.	24ee\	.	.
8A\	24dd#X\	.	.
.	24ddn\	.	.
.	24cc#\	.	.
8c#\J)	24ccn\	.	.
.	24b\	.	.
.	24b-X\JJ	.	.
(8f#\L	8a/	.	.
8c#\	8asSss/L	.	<
8A\	8bn/	.	.
*Xped	*	*	*
8F#\J)	8cc#X/J	.	[[
!!LO:LB:g=original
=11	=11	=11	=11
!	!LO:TX:b:i:t=espress.	!	!
.	(<8qcc#/	.	.
*^	*	*	*
4BB/	(>8BB\L	(4ee\)	.	.
.	8F#\	.	.	.
8ryy	8B\	8dd\L)	.	.
8ryy	8d\J)	16r	.	.
.	.	16cc#\Jk	.	.
8ryy	8FFn/	4cc#\	.	.
(8A/L	4.Fn\	.	.	.
.	.	(<32qqdd/LL	.	.
.	.	32qqcc#/JJ	.	.
8B/	.	(8.b\L)	.	.
8d/J)	.	.	.	.
.	.	16a\Jk)	.	.
=12	=12	=12	=12	=12
8ryy	8EE/	(2.b\	.	<
8ryy	(8E\L	.	.	.
8ryy	8G#\	.	.	.
8ryy	8B\J)	.	.	.
8ryy	8DDn/	.	.	.
(8F#X/L	4.D\	.	.	.
8G#/	.	4b#X\)	.	[
8B#X/J)	.	.	.	.
=13	=13	=13	=13	=13
!	!	!LO:TX:b:i:t=espress.	!	!
8ryy	8CC#/	4cc#\	.	.
8ryy	(8E#X\L	.	.	.
.	.	(<8qee/	.	.
8ryy	8G#\	(8.dd\L)	.	.
8ryy	8c#\J)	.	.	.
.	.	16cc#\Jk)	.	.
8ryy	8EE#X/	4cc#\	.	.
(8G#/L	4.E#\	.	.	.
.	.	(32qqdd/LLL	.	<
.	.	32qqcc#/	.	.
.	.	32qqb#X/	.	.
.	.	32qqcc#/JJJ)	.	.
.	.	8qee/	.	.
8B/	.	(8.dd\L	.	.
8c#/J)	.	.	.	.
.	.	16cc#\Jk)	.	.
*v	*v	*	*	*
!!LO:PB:g=original
=14	=14	=14	=14
.	(<8qcc#/	.	.
*ped	*	*	*
8FF#/	([4ccc#^^\)	.	.
(8F#\L	.	.	.
8A\	16ccc#^^\LL]	.	.
.	16gg#^\	.	.
*Xped	*	*	*
8c#\J)	16bb^\	.	.
.	16aa^\JJ)	.	.
*ped	*	*	*
!	!LO:TX:b:i:t=legato ed un poco rallent.	!	!
!	!LO:TUP:a:problem:klamra łukowa	!	!
8AA/	24ee#X\LL	.	.
.	24ff#\	.	.
.	24b#X\	.	.
(8A\L	24cc#\	.	.
.	24g#\	.	.
.	24a\JJ	.	.
*	*Xtuplet	*	*
!	!LO:TUP:a:problem:klamra łukowa	!	!
8c#\	24e#X\LL	1	.
.	24f#\	2	.
.	24a\	1	.
*Xped	*	*	*
8f#\J)	24cc#\	2	.
!	!LO:N:vis=24..	!	!
.	24.bbn 24.dd#X\	3 5	>
.	48aaJJk 48cc#\	2 5	]]
=15	=15	=15	=15
*^	*^	*	*
*ped	*	*	*	*	*
4BB/	(>8BB\L	(4aa/	(4cc#\	.	>
.	8B\	.	.	.	]
8ryy	8e\	8gg#/L)	8b\L)	.	.
*Xped	*	*	*	*	*
8ryy	8B\J)	16r	16r	.	.
.	.	16gg#/Jk	16b\Jk	.	.
*ped	*	*	*	*	*
2BB/	(>8BB\L	12gg#^^/L	12b\L	.	.
!	!	!LO:TX:b:i:t=poco ritenuto.	!	!	!
.	.	12aa^^/	12cc#\	.	.
.	8B\	.	.	.	.
.	.	12gg#^^/J	12b\J	.	.
.	8c#\	12ff#^^/L	8.a#X\L	.	.
.	.	12cc#^^/	.	.	.
*Xped	*	*	*	*	*
.	8f#\J)	.	.	.	.
.	.	12dd#X^^/J	.	.	.
.	.	.	16an\Jk	.	.
*v	*v	*	*	*	*
!!LO:LB:g=original
=16	=16	=16	=16	=16
!	!	!	!	!LO:DY:rj:b=2
8EE/	[4ee/	4g#\	.	p
(8G#\L	.	.	.	.
8B\	(16ee\LL]	4ryy	.	.
.	32dd#X\L	.	.	.
.	32ee\	.	.	.
8e\J	32ff#\	.	.	.
.	32ee\	.	.	.
.	32gg#\	.	.	.
!	!LO:N:vis=32	!	!	!
.	64r	.	.	.
.	64ff#\JJJk)	.	.	.
8g#\L	4ee\	4ryy	.	.
8e\	.	.	.	.
8B\	8r	4ryy	.	.
8G#\J)	8ee\	.	.	.
=17	=17	=17	=17	=17
*^	*	*	*	*
*ped	*	*	*	*	*
!	!	!	!	!	!LO:DY:rj
8ryy	8EE/	4dddn:/	4ee: 4ddn:\	.	pp
!	!	!LO:TX:b:i:t=dolce assai.	!	!	!
4E/	(>8E\L	.	.	.	.
.	8G#\	8ccc#/L	8eeL 8dd\	.	.
8ryy	8dn\J	8bb/J	8eeJ 8dd\	.	.
2ryy	8e\L	8aa#X/L	8eeL 8dd\	.	.
.	8d\	8bb/	8ee 8dd\	.	.
.	8G#\	8ccc#/	8ee 8dd\	.	.
*Xped	*	*	*	*	*
.	8E\J)	8bb/J	8eeJ 8dd\	.	.
*v	*v	*	*	*	*
=18	=18	=18	=18	=18
8AA/	8bb:/L	8ee:L 8cc#:\	.	.
(8E\L	8aa/J	8eeJ 8cc#\	.	.
8A\	4ee/	4cc#\	.	.
8c#\J	.	.	.	.
8e\L	(<8cc#/L	4cc#\	.	<
8c#\	8aa/J)	.	.	[
8A\	8.aa/L	8.ccn\L	.	>
8E\J)	.	.	.	.
.	16gg#/Jk	16b\Jk	.	]
!!LO:LB:g=original
=19	=19	=19	=19	=19
*^	*	*	*	*
*ped	*	*	*	*	*
2BB/	(>8BB\L	4gg#/	2an\	.	pp
.	8F#\	.	.	.	.
.	8A\	(<8.ff#/L	.	.	.
.	8d#X\J)	.	.	.	.
.	.	16b/Jk)	.	.	.
2BB/	(>8BB\L	4gg#:/	2a:\	.	.
.	8A\	.	.	.	.
.	8B\	(<8.ff#/L	.	.	.
*Xped	*	*	*	*	*
.	8d#\J)	.	.	.	.
.	.	16b/Jk)	.	.	.
*v	*v	*	*	*	*
=20	=20	=20	=20	=20
*ped	*	*	*	*
!	!LO:TX:b:i:t=delicato assai e legg.	!	!	!
8EE/	(<32ff#/LLL	8g#\	.	.
.	32ee/	.	.	.
.	32dd#X/	.	.	.
.	32ee/	.	.	.
(8G#\L	32aa/	8ryy	.	.
.	32gg#/	.	.	.
.	32ccc#/	.	.	.
.	32bb/JJJ)	.	.	.
8B\	(32eee\LLL	4ryy	.	.
.	32ddd#X\	.	.	.
.	32fff#\	.	.	.
.	32eee\	.	.	.
8e\J	32aaa\	.	.	.
.	32ggg#\	.	.	.
.	32cccc#\	.	.	.
.	32bbb\JJJ)	.	.	.
*	*v	*v	*	*
*	*8va	*	*
*	*^	*	*
8g#\L	8eeee\	4ryy	.	.
*	*X8va	*	*	*
!	!LO:TX:a:i:t=loco.	!	!	!
8e\	8r	.	.	.
*	*v	*v	*	*
*	*^	*	*
8B\	(8ee#^<\L	4ryy	.	p
.	32qqff#/LL	.	.	.
!	!LO:TX:b:i:t=espress.	!	!	!
.	32qqee#/JJ	.	.	.
8G#\J)	16dd#X\L	.	.	.
*Xped	*	*	*	*
.	16ee#\JJ)	.	.	.
!!LO:LB:g=original
=21	=21	=21	=21	=21
.	8qee/	.	.	.
8EE/	4dddn/	4ee 4ddn\	.	.
(8E\L	.	.	.	.
8G#\	8ccc#/L	8eeL 8dd\	.	.
8d\J	8bb/J	8eeJ 8dd\	.	.
8e\L	8aa#X/L	8eeL 8dd\	.	.
8d\	8bb/	8ee 8dd\	.	.
8G#\	8ccc#/	8ee 8dd\	.	.
8E\J)	8bb/J	8eeJ 8dd\	.	.
=22	=22	=22	=22	=22
8EE/	8bb/L	8eeL 8cc#\	.	.
(8E\L	8aa/J	8eeJ 8cc#\	.	.
8A\	4ee/	4cc#\	.	.
8c#\J	.	.	.	.
8e'\)	8r	2ryy	.	.
!	!LO:TX:b:i:t=appassionato assai.	!	!	!
8r	8aaaL 8cccn^<\	.	.	.
4r	8fff# 8aa^<\	.	.	.
.	8ddd#XJ 8ff#^<\	.	.	.
=23	=23	=23	=23	=23
*ped	*	*	*	*
!	!	!	!	!LO:DY:rj:b=2
1BB 1BBB	8cccnL 8ee^<\	2ryy	.	f
.	8bb 8dd#X^<\	.	.	.
.	8aan 8ccn^<\	.	.	.
.	8ff#J 8a^<\	.	.	.
*	*tuplet	*	*	*
!	!LO:TUP:a:problem:klamra łukowa	!	!	!LO:HP:t=molto cresc.
.	12dd#XL 12f#^</	4ryy	.	<
.	12ccn 12e^</	.	.	.
.	12bJ 12d#X^</	.	.	.
!	!LO:TUP:a:problem:klamra łukowa	!	!	!
.	12aL 12cn^</	(4d#\	.	.
!	!LO:TX:b:i:t=ritard.	!	!	!
.	12g#X 12B^</	.	.	.
*Xped	*	*	*	*
.	12f#XJ 12A^</	.	.	.
*	*v	*v	*	*
!!LO:LB:g=original
=24	=24	=24	=24
!	!LO:TX:b:i:t=  a tempo, dolce, pastorale e legato assai.	!	!
!	!LO:S:s=1:note:problem=note-level slur	!	!LO:DY:rj:b=2
(8EE/L	4e) 4G#X/	.	p
8BB/	.	.	.
8EE/	4r	.	.
8BB/J)	.	.	.
!	!	!	!LO:DY:b:rj
.	(32qqbbLLL 32qqgg#/	.	p
!	!LO:TX:b:i:t=dol.	!	!
.	32qqccc#/JJJ	.	.
(8EE/L	(8bbL 8gg#^^\)	.	.
8BB/	16gg#L 16ee\	.	.
.	16bbJJ 16gg#\)	.	.
8EE/	(8.eeL 8.b\	.	.
8BB/J)	.	.	.
.	16gg#\Jk)	.	.
=25	=25	=25	=25
.	(32qqbbLLL 32qqgg#/	.	.
.	32qqccc#/JJJ	.	.
(8EE/L	(16bbLL 16gg#\)	.	.
.	16aa 16ff#\	.	.
8BB/	16ff# 16dd#X\	.	.
.	16ccc#JJ 16aa\)	.	.
8EE/	4bb 4gg#\	.	.
8BB/J)	.	.	.
.	(32qqeeeLLL 32qqgg#/	.	.
.	32qqfff#/JJJ	.	.
(8EE/L	(8eeeL 8gg#\)	.	.
8BB/	16bbL 16gg#\	.	.
.	16gg#JJ 16ee\)	.	.
8EE/	8.eeL 8.b^<\	.	.
8BB/J)	.	.	.
.	16gg#\Jk	.	.
=26	=26	=26	=26
.	32qqff#LLL 32qqa#X/	.	.
.	32qqgg#/JJJ	.	.
*	*^	*	*
(8EE/L	(16ff#/LL	(4a#y\	.	.
.	16cc#/	.	.	.
8BB/	16ff#/	.	.	.
.	16gg#/JJ)	.	.	.
8EE/	(8ff#/L	8an\)	.	.
8BB/J)	16b/Jk)	8r	.	.
.	16r	.	.	.
.	(32qqbbLLL 32qqgg#/	.	.	.
.	32qqccc#/JJJ	.	.	.
(8EE/L	8bbL 8gg#^<\)	4ryy	.	.
8BB/	(16gg#L 16ee\	.	.	.
.	16bbJJ 16gg#\)	.	.	.
8EE/	(8.eeL 8.b\	4ryy	.	.
8BB/J)	.	.	.	.
.	16gg#\Jk)	.	.	.
!!LO:PB:g=original
=27	=27	=27	=27	=27
.	(32qqaaLLL 32qqff#/	.	.	.
.	32qqbb/JJJ	.	.	.
(8EE/L	(16aaLL 16ff#\)	4ryy	.	.
.	16ee#X 16cc##X\	.	.	.
8BB/	16ff# 16dd#X\	.	.	.
!	!LO:N:n=1:acc=n#	!	!	!
.	16ccc#XJJ 16aa\)	.	.	.
8EE/	(8bb/L	4gg#\	.	.
8BB/J)	16eee/Jk)	.	.	.
.	16r	.	.	.
!	!LO:TX:t=P:problem:nie wyświetla się mordent	!	!	!
(8EE/L	(16ddd#XLL 16bbM\	2ryy	.	.
.	16ccc# 16aa'\	.	.	.
8BB/	16aa 16ff#'\	.	.	.
.	16ff#JJ 16dd#'\)	.	.	.
8EE/	(8.dd#L 8.b\	.	.	.
8BB/J)	.	.	.	.
.	16ff#Jk 16a\)	.	.	.
=28	=28	=28	=28	=28
.	(<8qff#/	.	.	.
(8EE/L	16ee/LL)	4g#\	.	.
.	16dd#X/J	.	.	.
8BB/	8ee/J	.	.	.
8EE/	8r	4ryy	.	.
!	!LO:TX:b:i:t=dolce assai.	!	!	!
8BB/J)	(16bLL 16g#\	.	1 2	.
.	16gg#JJ 16ee\)	.	3 5	.
(8EE/L	8ff#L 8dd#X\	2ryy	2 4	.
8BB/	(16aL 16f#^<\	.	.	.
.	16eeJJ 16cc#\)	.	.	.
8EE/	8dd#L 8b/	.	.	.
8BB/J)	(16f#L 16d#X^/	.	.	.
.	16cc#JJ 16a/)	.	.	.
=29	=29	=29	=29	=29
(8EE/L	(16bLL 16g#/	4ryy	.	.
.	16B/J)	.	.	.
8BB/	[8g#J [8e^/	.	.	.
8EE/	8g#]L 8e/]	8ryy	.	.
8BB/J)	(<16B^</L	8B\	.	.
.	16g#/JJ)	.	.	.
.	(<32qqf#/LLL	.	.	.
.	32qqg#/JJJ	.	.	.
(8EE/L	8f#/L)	4A#X\	.	.
8BB/	(<16c#/L	.	.	.
.	16g#/JJ)	.	.	.
.	(<32qqf#/LLL	.	.	.
.	32qqg#/JJJ	.	.	.
8EE/	8f#/L)	(4An\	.	.
8BB/J)	(<16B/L	.	.	.
.	16g#/JJ)	.	.	.
!!LO:LB:g=original
=30	=30	=30	=30	=30
.	(<32qqg#/LLL	.	.	.
.	32qqf#/JJJ	.	.	.
(8EE/L	8.e/L)	8G#\)	.	.
8BB/	.	8ryy	.	.
.	16bJk 16g#/	.	.	.
!	!LO:TX:b:i:t=delicatissimo.	!	!	!
8EE/	(16eeLL 16b\	2ryy	.	.
.	16gg# 16ee\	.	.	.
8BB/J)	16bb 16gg#\	.	1 2	.
.	16ggg#JJ 16eee\)	.	3 5	.
(8EE/L	(16ggg#LL 16eee^<\	.	.	.
.	16fff# 16ddd#X\)	.	.	.
8BB/	(16aa 16ff#\	.	.	.
.	16eeeJJ 16ccc#\)	.	.	.
8EE/	(16eeeLL 16ccc#^<\	4ryy	.	.
.	16ddd#X 16bb\)	.	.	.
8BB/J)	(16ff# 16dd#X\	.	.	.
.	16ccc#JJ 16aa\)	.	.	.
=31	=31	=31	=31	=31
!	!LO:TX:b:i:t=poco rall.	!	!	!
!	!LO:TX:t=P:problem:nie wyświetla się mordent	!	!	!
(8EE/L	16ccc#LL 16aa\	4ryy	.	.
.	16bb 16gg#\	.	.	.
8BB/	16gg# 16ee\	.	.	.
.	16eeJJ 16b\	.	.	.
8EE/	(<8.b/L	4g#\	.	.
8BB/J)	.	.	.	.
.	16gg#/Jk)	.	.	.
.	(<32qqff#/LLL	.	.	.
.	32qqgg#/JJJ	.	.	.
(8EE/L	16ff#/LL)	4a#X\	.	.
.	16cc#/	.	.	.
8BB/	16ff#/	.	.	.
.	16gg#/JJ	.	.	.
.	(<32qqff#/LLL	.	.	.
.	32qqgg#/JJJ	.	.	.
8EE/	16ff#/LL)	(4an\	.	.
.	16b/	.	.	.
8BB/J)	16ff#/	.	.	.
.	16gg#/JJ	.	.	.
=32	=32	=32	=32	=32
.	(<32qqgg#/LLL	.	.	.
.	32qqff#/JJJ	.	.	.
(<8EE\L	4.ee/)	4.g#\)	.	p
8BB\	.	.	.	.
8EE\	.	.	.	.
8BB\J)	8r	8ryy	.	.
!	!LO:TX:t=P:problem:nie wyświetla się cauda między systemami	!	!	!
(<8EE\L	(>16A#XLL 16An<'>/	2ryy	.	.
.	16B 16A<'>/	.	.	.
8BB\	16B#X 16A<'>/	.	.	.
.	16c#JJ 16A<'>/)	.	.	.
8EE\	(>16c##XLL 16A<'>/	.	.	.
.	16d#X 16A<'>/	.	.	.
8BB\J)	16.g# 16.A<'>/	.	.	.
.	32f#JJk 32A<'>/)	.	.	.
!!LO:LB:g=original
=33	=33	=33	=33	=33
(<8EE\L	4.e 4.G#</	4.ryy	.	.
8BB\	.	.	.	.
8EE\	.	.	.	.
8BB\J)	8r	8r	.	.
*	*	*Xtuplet	*	*
!	!LO:TX:a:i:t=molto rall.	!	!	!
!	!LO:TUP:a:problem:klamra łukowa	!	!	!LO:DY:b:rj
(<8EE\L	24a#X/LL	24anLL 24d#X\	.	pp
!	!LO:TX:b:i:t=staccato.	!	!	!
.	24b/	24a 24d#\	.	.
.	24cc#/	24a 24d#\	.	.
8BB\	24b/	24a 24d#\	.	.
.	24ee/	24b 24a\	.	.
.	24dd#X/JJ	24bJJ 24a\	.	.
8EE\	8.gg#/L	4dd# 4b 4a\	.	.
8BB\J)	.	.	.	.
.	16ff#/Jk	.	.	.
*	*v	*v	*	*
=34	=34	=34	=34
.	(>8qg#/	.	p <
8EE/	1eeTT)	.	.
8r	.	.	.
*ped	*	*	*
4F##X: 4C#: 4AA#X: 4EE:/	.	.	.
*Xped	*	*	*
*ped	*	*	*
4G#: 4Dn: 4BB: 4EE:/	.	.	.
*Xped	*	*	*
*ped	*	*	*
4c#: 4F##X: 4E: 4EE:/	.	.	[[
*Xped	*	*	*
=35	=35	=35	=35
*ped	*	*	*
4dn: 4G#X: 4EE:/	2ee;<TTT\	.	.
4r;	.	.	.
*	*cue	*	*
2r	12ee\L	.	.
.	(24dd#X\LL	.	.
.	24ee\	.	.
.	24ff#\	.	.
*Xped	*	*	*
.	24ee\JJJ)	.	.
*	*Xcue	*	*
.	(<8qgg#/	.	.
.	8ff#\L)	.	pp
.	16r	.	.
.	16ee\Jk	.	.
!!LO:LB:g=original
=36	=36	=36	=36
!	!LO:TX:a:i:t=a tempo con gran sentimento.	!	!
(8AA\L	4ee\	.	.
8E\	.	.	.
8A\	8.ddn\L	.	.
8c#\J	.	.	.
.	16cc#\Jk	.	.
8e\L	4cc#\	.	.
8c#\	.	.	.
.	(<32qqdd/LL	.	.
.	32qqcc#/JJ	.	.
8A\	8.b\L)	.	.
8E\J)	.	.	.
.	16a\Jk	.	.
=37	=37	=37	=37
.	(<8qa/	.	>
8FF#/	(2aa\)	.	.
*clefG2	*	*	*
(8A/L	.	.	.
8c#/	.	.	.
8f#/J	.	.	.
8a/L	4cc#\)	.	]
8f#/	.	.	.
8c#/	8r	.	.
8A/J)	(8cc#\	.	.
*clefF4	*	*	*
=38	=38	=38	=38
*^	*	*	*
2BB/	(>8BB\L	4ee\)	.	.
.	8F#\	.	.	.
.	8B\	(8.dd\L	.	.
.	8d\J)	.	.	.
.	.	16cc#\Jk	.	.
2D/	(>8D\L	4cc#\	.	.
.	8A\	.	.	.
.	8B\	8.b\L	.	.
.	8fn\J)	.	.	.
.	.	16a\Jk)	.	.
*v	*v	*	*	*
=39	=39	=39	=39
(8E\L	(2.b\	.	.
8G#\	.	.	.
8B\	.	.	.
8e\J	.	.	.
8B\L	.	.	.
8G#\	.	.	<
8E\	4b#X\)	.	.
8Dn\J)	.	.	.
!!LO:LB:g=original
=40	=40	=40	=40
*^	*	*	*
4C#/	(>8C#\L	4cc#\	.	.
.	8G#\	.	.	.
.	.	(<8qee/	.	.
4ryy	8c#\	8.dd\L)	.	.
.	8e#X\J)	.	.	<
.	.	16cc#\Jk	.	.
2ryy	(8E#X\L	4cc#\	.	[
.	8B\	.	.	.
.	.	(32qqcc#/LLL	.	>
.	.	32qqdd/	.	.
.	.	32qqee/JJJ	.	.
.	8c#\	(8.dd\L)	.	.
.	8g#\J)	.	.	.
.	.	16cc#\Jk)	.	]]
*clefG2	*	*	*	*
=41	=41	=41	=41	=41
!	!	!LO:TX:a:i:t=con somma espressione.	!	!
(8F#/L	2ryy	(2cc#\	.	<
8c#/	.	.	.	.
8f#/	.	.	.	.
8a/J)	.	.	.	[[
8d#^/L	2d#X 2F#\	4ff#\)	.	>
8a^/	.	.	.	.
8g#^/	.	(8.ee\L	.	.
8f#^/J	.	.	.	.
.	.	16dd#X\Jk)	.	]]
=42	=42	=42	=42	=42
(<8e/L	2G#\	[4cc#\	.	.
8g#/J)	.	.	.	.
*	*	*tuplet	*	*
!LO:TUP:b:problem:klamra łukowa	!	!LO:TUP:a:problem:klamra łukowa	!	!
20e/LL	.	20cc#\LL]	.	.
20f#/	.	20dd#X\	.	.
20e/	.	20cc#\	.	.
20d#X/	.	20b#X\	.	.
20e/JJ	.	20cc#\JJ	.	.
(8g#/L	4ryy	(4.ee\	.	.
[8G#/J)	.	.	.	.
(<8.g#^/L	4B#X 4G#\]	.	.	.
.	.	8dd#\)	.	.
16f#/Jk)	.	.	.	.
*v	*v	*	*	*
*clefF4	*	*	*
=43	=43	=43	=43
8e: 8G#: 8C#:\	(2cc#\	.	pp
8r	.	.	.
4r	.	.	.
!	!LO:TX:b:i:t=poco rall.	!	!
2r	4ddn\	.	.
.	4dd#X\)	.	.
!!LO:PB:g=original
=44	=44	=44	=44
*^	*	*	*
4AA/	(>8AA\L	4ee\	.	.
.	8E\	.	.	.
4ryy	8A\	(8.ddn\L	.	.
.	8c#\J)	.	.	.
.	.	16cc#\Jk)	.	.
4AA/	(>8AA\L	4cc#\	.	.
.	8E#X\	.	.	.
.	.	(<32qqdd/LL	.	.
.	.	32qqcc#/JJ	.	.
4ryy	8A\	(8.b\L)	.	.
.	8c#\J)	.	.	.
.	.	16a\Jk)	.	.
*v	*v	*	*	*
=45	=45	=45	=45
.	(>8qa/	.	.
*ped	*	*	*
8FF#/	8aaa\L)	.	p
!	!LO:TX:b:i:t=legato e dolce assai.	!	!
(8F#\L	32r	.	.
.	(32ggg#\LL	.	.
.	32gggn\	.	.
.	32fff#\	.	.
8A\	32fffn\	.	.
.	32eee\	.	.
.	32ddd#X\	.	.
.	32dddn\	.	.
8c#\J)	32ccc#\	.	.
.	32cccn\	.	.
.	32bb\	.	.
.	32bb-X\JJJ)	.	.
(8f#\L	8aa`\	.	.
!	!LO:TX:t=P:problem:przekreślony obiegnik	!	!
8c#\	8aaSss\L	.	<
8A\	8bbn\	.	.
*Xped	*	*	*
8F#\J)	8ccc#X\J	.	[
!!LO:LB:g=original
=46-	=46-	=46-	=46-
.	8qqccc#/	.	.
*ped	*	*below	*
8BB/	([8eee\L	5	.
(8F#\L	32eee\LL]	.	.
.	32dddn\	4	.
.	32ee#X\	1	.
.	32ff#\JJJ)	2	.
8B\	([8ccc#\L	.	.
8d\J)	32ccc#\LL]	.	.
.	32bb\	.	.
*Xped	*	*	*
.	32cc#\	.	.
.	32dd\JJJ)	.	.
*ped	*	*	*
8EE/	([8aa\L	5	.
(8E\L	32aa\LL]	.	.
.	32gg#X\	4	.
.	32a#X\	1	.
.	32b\JJJ)	2	.
!	!LO:TX:b:i:t=poco rall.	!	!
8G#\	([8ff#\L	.	.
8d\J)	32ff#\LL]	.	.
.	32een\	.	.
*Xped	*	*	*
.	32dd#X\	.	.
.	32ddn\JJJ)	.	.
=47	=47	=47	=47
8AA/	(4b#X\	.	.
(8E\L	.	.	.
8A\	[4cc#\)	.	<
8c#\J)	.	.	.
8AA/	8cc#\L]	.	<
(8E\L	8cc#^\	.	.
8A\	8cc#^\	.	.
8c#\J)	8cc#^\J	.	.
=48	=48	=48	=48
*ped	*	*	*
8GG#/	4cc#\	.	.
(8E#X\L	.	.	.
.	(<8qee/	.	.
8B\	(8.dd\L)	.	.
8c#\J)	.	.	.
.	16cc#\Jk)	.	.
8CC#/	4cc#\	.	.
(8E#\L	.	.	.
.	(32qqdd/LLL	.	.
.	32qqcc#/	.	.
.	32qqb#X/	.	.
.	32qqcc#/JJJ)	.	.
.	(<8qee/	.	.
8B\	(8.dd\L)	.	.
8c#\J)	.	.	.
*Xped	*	*	*
.	16cc#\Jk)	.	[[
!!LO:LB:g=original
=49	=49	=49	=49
*ped	*	*	*
8FF#/	8cc#\	.	.
(8F#\L	8r	.	.
8A\	[4aa^<\	.	.
8c#\J)	.	.	.
!	!LO:TX:b:i:t=stringendo un poco.	!	!
8AA/	(16aa\LL]	.	.
.	16gg#\)	.	.
!	!	!	!LO:HP:b=2
(8A\L	(16ee#X\	.	>
.	16ff#\JJ)	.	.
8c#\	(16bb\LL	.	.
.	16aa\)	.	.
*Xped	*	*	*
8f#\J)	(16.ddd#X^<\	.	]
.	32ccc#\JJk)	.	.
=50	=50	=50	=50
*ped	*	*	*
8BB/	32bb\	.	.
.	32r	.	.
.	[16bbb^<\	.	sf
*clefG2	*	*	*
(8B/L	16bbb\LL]	.	.
.	(32aaa#X\L	.	.
.	32bbb\JJJ	.	.
8e/	32cccc#\LLL	.	.
.	32bbb\	.	.
.	32aaan\	.	.
.	32ggg#\JJJ	.	.
8g#/J)	32fff#\LLL	.	.
.	32eee\	.	.
*Xped	*	*	*
.	32ddd#X\	.	.
.	32ccc#\JJJ	.	.
*clefF4	*	*	*
!!LO:LB:g=original
=-	=-	=-	=-
*ped	*	*	*
8BB/	32bb\LLL	.	>
.	32aa#X\	.	.
.	32ccc#\	.	.
.	32bb\JJJ	.	.
*clefG2	*	*	*
(8B/L	32aan\LLL	.	.
.	32ff#\	.	.
.	32dd#X\	.	.
.	32b\JJJ)	.	.
8d#X/	(32a#X\LLL	.	.
!	!LO:TX:b:i:t=poco rall.	!	!
.	32b\	.	.
.	32cc#\	.	.
.	32b\JJJ	.	.
8a/J)	32ee\LLL	.	.
.	32dd#\	.	.
*Xped	*	*	*
.	32.gg#\	.	.
.	64ff#\JJJk)	.	.
*clefF4	*	*	*
=51	=51	=51	=51
*^	*	*	*
(<8E/L	[2E\	(2ff# (2a\	.	.
8B/	.	.	.	.
8d#X/	.	.	.	.
8B/J)	.	.	.	.
8e/L	8E\]	8ee 8g#\))	.	.
*ped	*	*	*	*
!	!	!	!	!LO:HP:a
(<8A#X:/	4.FF#:\	(8eeL 8gn/	.	>
8B/	.	8ddn 8f#/	.	.
8c#/J)	.	8cc#J 8e/)	.	]
*Xped	*	*	*	*
=52	=52	=52	=52	=52
*	*	*^	*	*
2BB/	(>8BB\L	4ddn:/	2f#: 2dn:\	.	p
.	8F#\	.	.	.	.
.	8B\	(<8.cc#/L	.	.	.
.	8F#\J)	.	.	.	.
.	.	16b/Jk)	.	.	.
2BB/	(>8BB\L	4cc#/	4f# 4e\	.	.
.	8F#\	.	.	.	.
.	8c#\	(8g#X/L	4e\	.	.
.	8F#\J)	8a#X/J)	.	.	.
!!LO:LB:g=original
=53	=53	=53	=53	=53	=53
2BB/	(>8BB\L	(2b/	(2d\	.	.
.	8F#\	.	.	.	.
.	8B\	.	.	.	.
.	8F#\J)	.	.	.	.
4D/	(>8D\L	4an/)	4f#\)	.	<
.	8A\	.	.	.	.
4D/	8D\	8a/L	4fn\	.	.
.	8A\J)	8b/J	.	.	.
*v	*v	*	*	*	*
=54	=54	=54	=54	=54
(8AA\L	2cc#/	4e\	.	.
8E\	.	.	.	.
8A\	.	(>8f#X\L	.	[
8c#\J)	.	8e\J)	.	.
*ped	*	*	*	*
8BBB/	(<8cc#^/L	2d#X\	.	>
(8BB\L	8b^/	.	.	.
8F#\	8a#X^/	.	.	.
*Xped	*	*	*	*
8B\J)	8an^/J)	.	.	]]
*	*v	*v	*	*
=55	=55	=55	=55
*^	*	*	*^
.	.	(32qqe/LLL	.	.	.
.	.	32qqg#/JJJ	.	.	.
8EE`/	8ryy	2.ee\)	.	.	.
!	!	!LO:TX:b:i:t=appassionato.	!	!LO:HP:a	!LO:HP:b=2:t=cresc. assai.
8G#L 8E^/	2.E\	.	.	<	<
8A 8F#^/	.	.	.	.	.
8A#XJ 8F##X^/	.	.	.	.	.
8BL 8G#^/	.	.	.	.	.
!LO:SIC:v:s=8cn 8An^/	!	!	!	!	!
8cn 8A#^/	.	.	.	.	.
8c#X 8A#X^/	.	4ee\	.	[	.
8dnJ 8B^>/	8ryy	.	.	.	.
*	*	*	*	*v	*v
!!LO:PB:g=original
=56	=56	=56	=56	=56
*	*	*^	*	*
*ped	*	*	*	*	*
8AA 8AAA/	2ryy	4ee/	2a 2gn\	.	f
(8A\L	.	.	.	.	.
8c#\	.	8.ddn/L	.	.	.
8A\J)	.	.	.	.	.
.	.	16cc#/Jk	.	.	.
8AA\	8ryy	4cc#/	2g\	.	<
8e/L	8r	.	.	.	.
.	.	32qqdd/L	.	.	.
.	.	32qqcc#/J	.	.	.
8d/	4A\	(<8.b/L	.	.	.
8c#/J	.	.	.	.	.
*Xped	*	*	*	*	*
.	.	16a/Jk)	.	.	[[
*	*	*v	*v	*	*
=57	=57	=57	=57	=57
.	.	(<8qf#/	.	p >
8DD/	2ryy	(4.ff#\)	.	.
(8F#\L	.	.	.	.
8G#X\	.	.	.	.
8A#X\J)	.	8cc#\	.	]
*ped	*	*	*	*
!	!	!LO:TX:a:i:t=poco rall.	!	!
(8B/L	2D\	8dd\L	.	.
8c#/	.	8a#X\	.	.
8d/	.	8b\	.	.
*Xped	*	*	*	*
8fn/J	.	8dd\J)	.	.
=58	=58	=58	=58	=58
*	*	*^	*	*
4e/)	8r	4cc#\	4ryy	.	.
.	[4.E\	.	.	.	.
(<8d/L	.	8.b\L	4ryy	.	.
8c#/J)	.	.	.	.	.
.	.	16a\Jk	.	.	.
4B/	2E\]	4.dd/	8dd\L	.	.
.	.	.	8f#\	.	.
(<8e/L	.	.	8g#\	.	.
8d/J)	.	8b/	8b\J	.	.
*	*	*v	*v	*	*
=59	=59	=59	=59	=59
!	!	!	!	!LO:HP:b:t=cresc. ed acceler.
4c#/	4A\	4a/	.	<
.	.	(32qqb/LLL	.	.
.	.	32qqa/	.	.
.	.	32qqg#/JJJ)	.	.
4r	4ryy	(8.a/L	.	.
.	.	16b/Jk)	.	.
2r	2ryy	4cc#\	.	.
.	.	(32qqdd/LLL	.	.
.	.	32qqcc#/	.	.
.	.	32qqb/JJJ)	.	.
.	.	(8.cc#\L	.	.
.	.	16dd\Jk)	.	.
*v	*v	*	*	*
!!LO:LB:g=original
=60	=60	=60	=60
*	*^	*	*
*ped	*	*	*	*
!	!LO:TX:b:i:t=con passione.	!	!	!LO:DY:b:rj
8AA 8AAA`/	4ee^/	4a 4gn 4e\	.	ff
(8A\L	.	.	.	.
8c#\	8.ddn^/L	8.gL 8.e\	.	.
8A\J)	.	.	.	.
.	16cc#^/Jk	16gJk 16e\	.	.
8AAA`/	4cc#^/	4g 4e\	.	.
8AA'\L	.	.	.	.
8A'\	8bL 8g^/	8d\L	.	.
*Xped	*	*	*	*
8AA'\J	8aJ 8g^/	8c#\J	.	.
*	*v	*v	*	*
=61	=61	=61	=61
.	(32qqf#/LLL	.	.
.	32qqa/JJJ	.	.
4D 4DD`/	8ff#^\L)	.	.
.	8cc#^\	.	.
4r	8dd^\	.	.
.	8a#X^\J	.	.
!	!LO:TX:b:i:t=molto ritard.	!	!
2r	8b^>/L	.	>
.	8gn^>/	.	.
.	8f#^>/	.	.
.	8fn^>/J	.	]]
=62	=62	=62	=62
*^	*^	*	*
*ped	*	*	*	*	*
8ryy	1E^>	(<8e/L	2e\	.	p
!	!	!LO:TX:b:i:t=dol.	!	!	!
(<8c#/L	.	8a/	.	.	.
8B/	.	8b/	.	.	.
8A/J)	.	8cc#/J)	.	.	.
8G#/	.	8dd/	4ryy	.	.
!LO:TUP:b:problem:klamra łukowa	!	!LO:TUP:a:problem:klamra łukowa	!	!	!
24F##X/LL	.	24d#X/LL	.	.	.
24G#/	.	24e/	.	.	.
24A/JJ	.	24f#X/JJ	.	.	.
*	*	*	*Xtuplet	*	*
!LO:TUP:b:problem:klamra łukowa	!	!LO:TUP:a:problem:klamra łukowa	!	!	!
24G#/LL	.	24e/LL	12ryy	.	.
24c#/	.	24a/	.	.	.
!	!	!	!LO:N:vis=6.	!	!
24B/	.	24g#/	(6g#\	.	.
24e/	.	24cc#/	.	.	.
24.e;/	.	24.cc#;/	.	.	.
*Xped	*	*	*	*	*
48dn/JJk	.	48b/JJk	.	.	.
*v	*v	*	*	*	*
!!LO:LB:g=original
=63	=63	=63	=63	=63
8AA/	4a/	4a\)	.	.
(8E\L	.	.	.	.
8A\	4r	4ryy	.	.
8c#\J	.	.	.	.
8e\L	8.r	2ryy	.	.
8A\	.	.	.	.
.	16a/	.	.	.
!	!LO:TX:b:i:t=tranquillo.	!	!	!
8c#\	(8.aT/L	.	.	.
8E\J)	.	.	.	.
.	32g#X/LL	.	.	.
.	32a/JJJ)	.	.	.
*	*v	*v	*	*
=64	=64	=64	=64
.	(<8qa/	.	.
*ped	*	*	*
8AA/	(4aa\)	.	.
(8Fn\L	.	.	.
8A\	8.ggn\L	.	.
8d\J	.	.	.
.	16ffn\Jk	.	.
8fn\L	4ff\	.	.
8A\	.	.	.
.	(32qqgg/LLL	.	.
.	32qqff/JJJ)	.	.
8d\	8.ee\L	.	.
*Xped	*	*	*
8F\J)	.	.	.
.	16dd\Jk)	.	.
=65	=65	=65	=65
(8AA\L	[4ee\	.	.
8E\	.	.	.
8A\	16ee\LL]	.	.
.	(32dd#X\L	.	.
.	32ee\JJJ	.	.
8c#\J)	32ff#X\LLL	.	.
.	32ee\	.	.
.	32cc#X\	.	.
.	32a\JJJ)	.	.
(8C#/L	4.e/	.	.
8E/	.	.	.
8C#/	.	.	.
8AA/J)	8cc#\	.	.
!!LO:LB:g=original
=66	=66	=66	=66
*	*^	*	*
*ped	*	*	*	*
8EE/	4cc#/	2dn\	.	.
(8E\L	.	.	.	.
8G#\	(<8.b/L	.	.	.
8E\J)	.	.	.	.
.	16e/Jk)	.	.	.
.	(8qe/	.	.	.
8EE/	4cc#/)	(2d\	.	.
(8E\L	.	.	.	.
8G#\	(<8.b/L	.	.	.
8E\J)	.	.	.	.
*Xped	*	*	*	*
.	16e/Jk)	.	.	.
=67	=67	=67	=67	=67
*^	*	*	*	*
(<8E/L	[2AA\	([4a^/	(4c#\)	.	<
8A/	.	.	.	.	.
8Fn/	.	8.a/L]	(4d\)	.	[>
8A/J)	.	.	.	.	.
.	.	32gn/LL	.	.	.
.	.	32fn/JJJ	.	.	.
(<8E/L	8AA\]	8e/)	8c#\)	.	]
8A/	8rAA	8r	8ryy	.	.
8c#/	4rAA	(8.aT/L	4ryy	.	p
8e/J)	.	.	.	.	.
.	.	32g#X/LL	.	.	.
.	.	32a/JJJ)	.	.	.
*v	*v	*	*	*	*
*	*v	*v	*	*
=68	=68	=68	=68
.	(>8qa/	.	.
8AA/	4aa\)	.	.
(8Fn\L	.	.	.
.	(<32qqgg#X/LLL	.	.
.	32qqaa/	.	.
.	32qqbb-X/JJJ	.	.
8A\	2aat\)	.	<
8d\J	.	.	.
8fn\L	.	.	.
8A\	.	.	.
.	(32qqgg#X/LLL	.	[
.	32qqaa/JJJ	.	.
8d\	(32bb-\LLL)	.	.
.	32aa\	.	>
.	32ggn\	.	.
.	32ffn\JJJ	.	.
8Fn\J)	32gg\LLL	.	.
.	32ff\	.	.
.	32ee\	.	.
.	32dd\JJJ)	.	]
!!LO:LB:g=original
=69	=69	=69	=69
*	*^	*	*
!	!LO:TX:b:i:t=delicato.	!	!	!
8AA/	8.ee\L	2ryy	.	.
(8E\L	.	.	.	.
.	(32dd#X\LL	.	2	.
.	32ee\JJJ)	.	1	.
8A\	(32ddd#X\LLL	.	.	.
.	32eee\	.	.	.
.	32bb#X\	.	.	.
.	32ccc#X\JJJ	.	.	.
8c#\J	32gg#X\LLL	.	.	.
.	32aa\	.	.	.
.	32cc#\	.	.	.
.	32ff#X\JJJ)	.	.	.
8e\L	8ee\	4ryy	.	.
8A\	8r	.	.	.
8c#\	8.cc#/L	(4e\	.	.
8E\J)	.	.	.	.
.	16cc#/Jk	.	.	.
=70	=70	=70	=70	=70
*^	*	*	*	*
*ped	*	*	*	*	*
4BB/	(>8BB\L	4cc#/	2d#X\)	.	>
.	8F#\	.	.	.	.
!	!	!LO:TX:a:i:t=morendo.	!	!	!
4ryy	8A\	8b/L	.	.	.
.	8F#\J)	16r	.	.	.
*Xped	*	*	*	*	*
.	.	16b/Jk	.	.	]
*ped	*	*	*	*	*
2ryy	8EE'/	(<4.cc#/	(2dn\	.	.
.	(8E\L	.	.	.	.
.	8G#\	.	.	.	.
*Xped	*	*	*	*	*
.	8E\J)	8b/)	.	.	.
*v	*v	*	*	*	*
!!LO:PB:g=original
=71	=71	=71	=71	=71
*	*	*	*	*^
*ped	*	*	*	*	*
!	!	!	!	!LO:DY:b:rj	!LO:DY:rj:b=2
(8AA/L	4a/	4c#\)	.	p	pp
!	!LO:TX:b:i:t=armonioso e dolce assai.	!	!	!	!
8E/	.	.	.	.	.
8AA/	8r	4ryy	.	.	.
*	*	*	*above	*	*
8E/J)	(16eeLL 16cc#\	.	1 2	.	.
.	16ccc#JJ 16aa\)	.	4 5	.	.
(8AA/L	8bbL 8gg#'\	2ryy	.	.	.
8E/	(16ddL 16b\	.	.	.	.
.	16aaJJ 16ff#\)	.	.	.	.
8AA/	8gg#L 8ee'\	.	.	.	.
8E/J)	(16bL 16g#\	.	.	.	.
.	16ff#JJ 16dd\)	.	.	.	.
*	*	*	*	*v	*v
=72	=72	=72	=72	=72
!	!	!	!	!LO:HP:b:t=poco rallen. e dim.
(8AA/L	(16eeLL 16cc#/	2ryy	.	>
.	16e/J)	.	.	.
8E/	[8cc#J [8a^/	.	.	.
8AA/	8cc#]L 8a/]	.	.	.
8E/J)	(16e/L	.	.	.
.	16cc#/JJ)	.	.	.
.	(<32qqb/LLL	.	.	.
.	32qqcc#/JJJ	.	.	.
(8AA/L	8b/L)	4d#X\	.	.
8E/	(<16f#/L	.	.	.
.	16cc#/JJ)	.	.	.
.	(<32qqb/LLL	.	.	.
.	32qqcc#/JJJ	.	.	.
8AA/	8b/L)	4dn\	.	.
8E/J)	(<16e/L	.	.	.
.	16cc#/JJ)	.	.	.
=73	=73	=73	=73	=73
.	(<32qqcc#/LLL	.	.	.
.	32qqb/JJJ	.	.	.
!	!LO:TX:b:i:t=legatissimo.	!	!	!
(8AA/L	8a/L)	8c#\	.	.
8E/	16cc#/L	8ryy	.	.
.	16ee/JJ	.	.	.
8AA/	16aa\LL	4ryy	.	.
.	16ccc#\	.	.	.
8E/J)	16eee\	.	.	.
.	16aaaJJ 16fff#\	.	.	.
*	*v	*v	*	*
!!LO:LB:g=original
=-	=-	=-	=-
*	*^	*	*
*	*8va	*	*	*
(8AA/L	8bbb/L	(>16ggg#\LL	.	.
.	.	16bb\J)	.	.
8E/	16fff#/L	8ddd\J	.	.
.	16aaa/JJ	.	.	.
8AA/	8ggg#/L	16eee\LL	.	.
.	.	16gg#\	.	.
8E/J)	16ddd/L	16bb\	.	.
.	16fff#/JJ	16ddd\JJ	.	.
*	*v	*v	*	*
*	*X8va	*	*
=74	=74	=74	=74
*^	*^	*	*
!	!	!LO:TX:a:i:t=loco.	!	!	!
(8AA/L	4ryy	(16fff#M/LL	16ddd\LL	.	pp
.	.	16eee/)	16ccc#\	.	.
8E/)	.	16ccc#/	16aa\	.	.
!	!	!LO:TX:b:i:t=poco a poco rallen.	!	!	!
.	.	16aa/JJ	16ee\JJ	.	.
(8E 8AA/	4ryy	8.ee/L	4cc#\	.	.
8A/J)	.	.	.	.	.
.	.	16ccc#/Jk	.	.	.
.	.	(<32qqbb/LLL	.	.	.
.	.	32qqccc#/JJJ	.	.	.
(<8F#/L	4AA\	16bb/LL)	4dd#X\	.	.
.	.	16ff#/	.	.	.
8A/)	.	16bb/	.	.	.
.	.	16ccc#/JJ	.	.	.
.	.	(<32qqbb/LLL	.	.	.
.	.	32qqccc#/JJJ	.	.	.
(<8G#/	4AA\	16bb/LL)	(4ddn\	.	.
.	.	16ee/	.	.	.
8E/J)	.	16bb/	.	.	.
.	.	16ccc#/JJ	.	.	.
=75	=75	=75	=75	=75	=75
8A/	8AA\L	8aa/	8cc#\)	.	.
8ryy	8E\	8r	8ryy	.	.
4ryy	8AA\J	8r	8ryy	.	.
*	*	*clefF4	*	*below	*
!	!	!	!	!	!LO:DY:b:rj
.	8r	(16D#X\LL	8ryy	2	p
.	.	16E\JJ)	.	1	.
2ryy	2r	(16dn\LL	2ryy	5	.
.	.	16c#\)	.	4	.
.	.	(16G#\	.	2	.
.	.	16A\JJ)	.	1	.
*	*	*clefG2	*	*above	*
.	.	(16f#/LL	.	4	.
.	.	16e/	.	3	.
.	.	16B#X/	.	1	.
.	.	16c#/JJ)	.	2	.
*v	*v	*	*	*	*
*	*v	*v	*	*
!!LO:LB:g=original
=76	=76	=76	=76
(8AA/L	4a/	5	pp
8E/	.	.	.
8AA/J)	8r	.	.
8r	(16d#X/LL	.	.
.	16e/JJ)	.	.
2r	(16ddn\LL	.	.
.	16cc#\	.	.
.	16g#\	.	.
.	16a\JJ)	.	.
*	*	*below	*
.	(16ff#\LL	5	.
.	16ee\	4	.
.	16b#X\	2	.
.	16cc#\JJ)	1	.
=77	=77	=77	=77
(8AA/L	4aa\	5	.
8E/	.	.	.
8AA/J)	8r	.	.
8r	(16dd#X\LL	.	.
.	16ee\JJ)	.	.
2r	(16dddn\LL	.	.
.	16ccc#\	.	.
.	16gg#\	.	.
.	16aa\JJ)	.	.
.	(16fff#\LL	.	.
.	16eee\	.	.
.	16bb#X\	.	.
.	16ccc#\JJ)	.	.
!!LO:LB:g=original
=78	=78	=78	=78
*ped	*	*	*
2r	(16bbb\LL	.	ppp
.	16aaa\	.	.
.	16eee\	.	.
.	16ccc#\JJ	.	.
!	!LO:TX:b:i:t=rallen.	!	!
.	16aa\LL	.	.
.	16ee\	.	.
.	16cc#\	.	.
.	16a\JJ	.	.
!	!LO:TX:a:t=P:problem:mixed beam	!	!
!	!LO:TX:a:i:t=a piacere.	!	!
4r	16e\LL	.	.
.	16c#\	.	.
.	16A\	.	.
.	16E</JJ	.	.
16r	16C#</)	.	.
16AA'\LL	16ryy	.	.
16EE'\	8ryy	.	.
16CC#'\JJ	.	.	.
=79	=79	=79	=79
4AAA'/	2r	.	.
*Xped	*	*	*
4r	.	.	.
*	*clefF4	*	*
4Cn 4FFn/	4A 4Fn^^\	.	pp
4r	4r	.	.
=80	=80	=80	=80
*ped	*	*	*
1AA 1AAA;	1c#X 1A 1E;	.	pp
*Xped	*	*	*
==	==	==	==
*-	*-	*-	*-
!!!system-decoration: {(s1,s2)}
!!!RDF**kern: > = above
!!!RDF**kern: < = below
!!!ENC: Berenika Jozajtis
!!!END: 2022-09-08
!!!ENC: Katarzyna Serwa
!!!END: 2022-10-20
!!!YEC: Copyright 2022 Narodowy Instytut Fryderyka Chopina (https://polishscores.org)
!!!YEM: License CC-BY-4.0 (https://creativecommons.org/licenses/by/4.0)
